X:254
T: Der Graf und die Magd (23a), S. 94f
N: T0143
O: Luxemburg
S: Singendes Volk, Esch-Alzette 1937 posth.]
N: Rammeldingen, fff Wagener, 17.2.1934,
N: ergnzt: Hesperingen, fff Oberweis;
N: Bofferdingen, fff Georges
R: Liebeslieder]
M: 3/4
L: 1/16
K: G
D2 | G2G2G6A2 | B2B2B6
B2 | AABBc6A2 | A2B2B6
d2 | d2c2B6d2 | e2d2A6
c2 | B2A2G6B2 | B2A2z6

